build/category/BusOutline.svg

<svg xmlns="http://www.w3.org/2000/svg" fill="none" viewBox="0 0 24 24" focusable="false"><path d="M0 0H24V24H0z"/><path fill="#74767B" fill-rule="evenodd" d="M3.00741 20.0468L3.00741 19.5394L3.00204 19.5394L3.00204 11.433C3.00166 11.4171 3.00146 11.4012 3.00146 11.3853L3.00146 10.025C3.00146 10.0158 3.00166 10.0066 3.00204 9.99747L3.00204 5.45422C3.00204 3.79737 4.34518 2.45422 6.00204 2.45422L18.0004 2.45422C19.6573 2.45422 21.0004 3.79737 21.0004 5.45422L21.0014 20.0356C21.0014 21.1126 20.1284 21.9856 19.0514 21.9856L17.871 21.9856C16.7915 21.9856 15.9174 21.1085 15.921 20.029L15.9227 19.5394L8.0861 19.5394L8.0878 20.0402C8.09145 21.1197 7.21734 21.9968 6.13781 21.9968L4.95741 21.9968C3.88045 21.9968 3.00741 21.1237 3.00741 20.0468ZM18.0004 3.75422L6.00204 3.75422C5.06315 3.75422 4.30204 4.51534 4.30204 5.45422L4.30204 11.4128C4.3165 11.7599 4.60307 12.0365 4.9537 12.0353L19.0365 11.9868C19.3946 11.9856 19.6843 11.695 19.6843 11.3368L19.6843 10.1971C19.6843 10.1473 19.6899 10.0989 19.7004 10.0524L19.7004 5.45422C19.7004 4.51534 18.9393 3.75422 18.0004 3.75422ZM6.34676 5.69736C6.34676 5.33838 6.63778 5.04736 6.99676 5.04736L17.028 5.04736C17.387 5.04736 17.678 5.33838 17.678 5.69736C17.678 6.05635 17.387 6.34736 17.028 6.34736L6.99676 6.34736C6.63778 6.34736 6.34676 6.05635 6.34676 5.69736ZM19.7004 13.1701C19.4946 13.2449 19.2726 13.286 19.041 13.2868L4.95817 13.3352C4.72809 13.336 4.5072 13.297 4.30204 13.2245L4.30204 15.0325L6.00612 15.0325C6.3651 15.0325 6.65612 15.3235 6.65612 15.6825C6.65612 16.0415 6.3651 16.3325 6.00612 16.3325L4.30204 16.3325L4.30204 18.2394L6.96108 18.2394C7.43424 16.7727 8.81055 15.711 10.4355 15.711L11.998 15.711L13.5644 15.7072C15.1942 15.7032 16.576 16.7678 17.0489 18.2394L19.7004 18.2394L19.7004 16.3325L18.0168 16.3325C17.6578 16.3325 17.3668 16.0415 17.3668 15.6825C17.3668 15.3235 17.6578 15.0325 18.0168 15.0325L19.7004 15.0325L19.7004 13.1701ZM8.36996 18.2394L15.6409 18.2394C15.2425 17.504 14.4632 17.005 13.5675 17.0072L12.0004 17.011L11.9988 17.011L10.4355 17.011C9.54363 17.011 8.76809 17.5078 8.36996 18.2394ZM4.30741 19.5394L6.7861 19.5394L6.78781 20.0446C6.78902 20.4044 6.49765 20.6968 6.13781 20.6968L4.95741 20.6968C4.59842 20.6968 4.30741 20.4058 4.30741 20.0468L4.30741 19.5394ZM17.2227 19.5394L19.7014 19.5394L19.7014 20.0356C19.7014 20.3946 19.4104 20.6856 19.0514 20.6856L17.871 20.6856C17.5112 20.6856 17.2198 20.3932 17.221 20.0334L17.2227 19.5394Z"/></svg>

<svg xmlns="http://www.w3.org/2000/svg" fill="none" viewBox="0 0 24 24" focusable="false"><path fill="#74767B" fill-rule="evenodd" d="M3 20.04V5.45c0-1.66 1.34-3 3-3h12c1.65 0 3 1.34 3 3v14.58c0 1.08-.88 1.95-1.95 1.95h-1.18c-1.08 0-1.96-.88-1.95-1.96v-.49H8.08v.51c.01 1.07-.87 1.95-1.95 1.95H4.95c-1.07 0-1.95-.87-1.95-1.95M18 3.75H6c-.94 0-1.7.76-1.7 1.7v5.96c.01.34.3.62.65.62l14.08-.05c.36 0 .65-.29.65-.65v-1.14c0-.05 0-.1.02-.14v-4.6c0-.94-.77-1.7-1.7-1.7M6.34 5.69c0-.36.29-.65.65-.65h10.03c.36 0 .65.29.65.65s-.29.65-.65.65H6.99c-.36 0-.65-.29-.65-.65m13.36 7.48c-.21.07-.43.11-.66.11l-14.09.05c-.23 0-.45-.04-.65-.11v1.81H6c.36 0 .65.29.65.65s-.29.65-.65.65H4.3v1.9h2.66a3.65 3.65 0 0 1 3.47-2.52h1.56l1.57-.01c1.63 0 3.01 1.06 3.48 2.53h2.66v-1.9h-1.69c-.36 0-.65-.29-.65-.65s.29-.65.65-.65h1.69zM8.37 18.23h7.27A2.37 2.37 0 0 0 13.56 17l-1.56.01h-1.57c-.89 0-1.67.49-2.06 1.22m-4.07 1.3h2.48v.51c0 .36-.29.65-.65.65H4.95c-.36 0-.65-.29-.65-.65zm12.92 0h2.48v.5c0 .36-.29.65-.65.65h-1.18c-.36 0-.66-.29-.65-.65z"/></svg>
